X:1
T:I Want a Girl
M:2/4
L:1/8
K:C
 GE F^F| Ge cA| B_B =B_B| B3 d| AA AA| A3 c| GG GG| G3 z| GE F^F| Ge cA|\
 BA Bc| d3 d| dc _A=A| ed _B=B| dc Ad| G3 z| GG _AA| AA _BB| BB cc|\
 _dd =d2| G4| EF G2| c4| AB cd| e2 c2| e2 d2| c4-| c3 z| A4| cB c2|\
 G3 A| GF EG| A2 d2| d2 e2| d4-| d3 d| e2 e2| ed ce| d2 d2| d3 z| c2 c2|\
 cB Ac| B2 B2| B2 A2| G4| EF G2| c3- B| AB cd| e2 c2| e2 d2| c4-| c3 z|\
 z4|
